X:14b
T:Seneca Square Dance
T:Waiting for the Federals
Z:Nigel Gatherer to CoMandoList TOW
M:4/4
L:1/4
Q:100
K:G
|:"G"B2 BA/B/|dB B/A/G|B2 d>B|"D7"A/B/A/G/ ED|!
"G"B2 BA/B/|dB B/A/G|"D7"A/B/A/G/ EF|"G"G2 G2:|!
|:"G"g2 g>e|dB2B/d/|g2 g/f/g/a/|"Em"b/ee/ e>f|!
"C"g/a/b/a/ g>e|"G"d/g/e/d/ B/A/G|"D7"A/B/A/G/ EF|"G"G2 G2:|!
|:"G"g2 g>e|dB2B/d/|g2 g/f/g/a/|"Em"b/ee/ e>f|!
"C"gg/a/ g/f/e|"G"d/g/e/d/ B/A/G|"D7"A/B/A/G/ EF|"G"G2 G2:|!
